X:23
T:Tsamiko
O:Greece
M:3/4
K:Dm
|:A2GFED|E3DEF|AGFED^C|D3ddd|dc^BA^GF|E3DEF|AGFED^C|D4z2:|
|:D2D2D2|D^C^B,2A,2|^CDE^FEC|D4z2:|
|:G2G,2G2|FGFED2|A2A,2G2|FED2D,2|EFG2G,2|AFEDEF|A2A,2G2|FED2D,2:|
